src/topics/icons/kemal.svg

<?xml version="1.0" encoding="UTF-8" standalone="no"?>
<svg width="256px" height="174px" viewBox="0 0 256 174" version="1.1" xmlns="http://www.w3.org/2000/svg" xmlns:xlink="http://www.w3.org/1999/xlink" preserveAspectRatio="xMidYMid">
	<g>
		<path d="M128.5942,0 L129.9872,3.076 L130.1812,170.901 L128.5942,173.994 L0.0002,173.994 L20.9412,3.674 C21.1992,1.576 22.9812,0 25.0952,0 L128.5942,0 Z" fill="#FF4F4F"></path>
		<path d="M128.5942,0 L128.5942,173.994 L256.0002,173.994 L235.0592,3.674 C234.8012,1.576 233.0192,0 230.9052,0 L128.5942,0 Z" fill="#F92727"></path>
		<polygon fill="#000000" points="197.0511 105.538 191.4351 105.538 191.3461 0 196.0711 0"></polygon>
	</g>
</svg>

<svg height="174" preserveAspectRatio="xMidYMid" viewBox="0 0 256 174" width="256" xmlns="http://www.w3.org/2000/svg"><path d="m128.5942 0 1.393 3.076.194 167.825-1.587 3.093h-128.594l20.941-170.32c.258-2.098 2.04-3.674 4.154-3.674z" fill="#ff4f4f"/><path d="m128.5942 0v173.994h127.406l-20.941-170.32c-.258-2.098-2.04-3.674-4.154-3.674z" fill="#f92727"/><path d="m197.0511 105.538h-5.616l-.089-105.538h4.725z"/></svg>
